X:1
T:Für Elise
T:Für Elise
T:Ludwig van Beethoven (1770–1827) Transcr.: Theo Thomassen 
T:Bagatelle nr. 25 in A minor - WoO59 for solo guitar 
T:De gitaarclub 2020
T:De gitaarclub 2020
T:De gitaarclub 2020
C:Ludwig van Beethoven
Z:De gitaarclub 2020
%%score ( 1 2 )
L:1/8
Q:1/8=110
M:3/8
K:C
V:1 treble-8 nm="Guitar 1"
V:2 treble-8 
V:1
"^poco moto" !4!e'/!3!^d'/ | e'/^d'/!-(!!4!e'/!-)!!1!b/!-(!!4!=d'/!-)!!4!c'/ |"^V" a z/ c/e/a/ | %3
 !4!b z/ !0!e/!1!^g/!-(!!4!b/ |"^V" !-)!!4!c' z/ !1!e/!4!e'/!3!^d'/ | %5
 e'/^d'/e'/b/!-(!!4!=d'/!-)!!4!c'/ |"^V" a z/ c/e/a/ | !4!b z/ !1!e/!-(!!4!c'/!-)!!4!b/ |1 %8
"^V" a2 :|2"^V" a z/ !1!b/!2!c'/!-(!!3!!d'/ |: !-)!!3!e'3/2 !2!g/!4!f'/!-(!!3!e'/ | %11
 !-)!!3!d'3/2 !2!f/!4!e'/!-(!!3!d'/ | !-)!!2!c'3/2 !3!e/!4!d'/!-(!!2!c'/ | %13
 !-)!!2!b z/ (!1!e/!4!e'/) z/ | z/ (e/"^flag."!8va(!e''/)!8va)! z/ z/ (^d'/ | %15
 e'/)^d'/e'/d'/e'/d'/ | e'/^d'/e'/b/!-(!!4!=d'/!-)!!4!c'/ |"^V" a z/ c/e/a/ | %18
 !4!b z/ !0!e/!1!^g/!-(!!4!b/ |"^V" !-)!!4!c' z/ !1!e/!4!e'/!3!^d'/ | %20
 e'/^d'/e'/b/!-(!!4!=d'/!-)!!4!c'/ |"^V" a z/ c/e/a/ |1 !4!b z/ !1!e/!-(!!4!c'/!-)!!4!b/ | %23
"^V" a z/ !1!b/!2!c'/!3!!d'/ :|2 !4!b z/ !2!E/!1!c/!0!B/ || %25
 !3!A z/ !4!!2!!0![_Bce]/!3!!2!!0![Ace]/!0!!2![Gce]/ | !4!!3!!2![FAc]2 !2!f/>!0!e/ | %27
 (e!4!d) !4!_b/>!3!a/ |"^III" (!3!a/!1!g/!4!f/!3!e/!1!d/!-(!!4!!c/) | %29
 !-)!!4!_B!2!A{!4!B} !2!A/4!0!G/4!2!A/4!4!B/4 |"^I" !1!c2 !-(!!4!d/!-)!!4!_e/ | %31
 !0!e3/2 !0!e/"^I!"!1!f/!2!A/ | !1!c2 !3!d/>!0!B/ | %33
 !1!c/4!4!g/4!0!G/4!4!g/4 !2!A/4!4!g/4!0!B/4!4!g/4 !1!c/4!4!g/4!3!d/4!4!g/4 | %34
 !0!!e/4!3!g/4!4!c'/4!-(!!3!b/4"^III" !-)!!3!a/4!1!g/4!4!f/4!-(!!3!e/4 !-)!!3!d/4!4!g/4!1!f/4!3!d/4 | %35
 c/4g/4G/4g/4 A/4g/4B/4g/4 c/4g/4d/4g/4 | %36
 !0!e/4!3!g/4!4!c'/4!2!!b/4 !1!a/4!4!g/4!1!f/4!0!e/4 !3!d/4!4!g/4!-(!!2!f/4!3!d/4 | %37
"^3IV" (!-)!!2!e/4!4!f/4)!2!e/4!1!^d/4 !2!e/4!1!B/4(!2!e/4!1!d/4) e/4B/4e/4d/4 | %38
 !4!e3/2 !3!B/!4!e/!2!_e/ | !4!e3/2 (!3!b/!4!e'/) (!2!!^d'/ | %40
!4!e'/) (!3!^d'/!4!e'/) (d'/e'/) (d'/ | e'/)^d'/e'/b/!-(!!4!=d'/!-)!!4!c'/ |"^V" a z/ c/e/a/ | %43
 !4!b z/ !0!e/!1!^g/!-(!!4!b/ |"^V" !-)!!4!c' z/ !1!e/!4!e'/!3!^d'/ | %45
 e'/^d'/e'/b/!-(!!4!=d'/!-)!!4!c'/ |"^V" a z/ c/e/a/ | !4!b z/ !1!e/!-(!!4!c'/!-)!!4!b/ | %48
"^V" a z/ !1!b/!2!c'/!-(!!3!!d'/ | !-)!!3!e'3/2 !2!g/!4!f'/!-(!!3!e'/ | %50
 !-)!!3!d'3/2 !2!f/!4!e'/!3!d'/ | !2!c'3/2 !3!e/!4!d'/!-(!!2!c'/ | !-)!!2!b z/ (!1!e/!4!e'/) z/ | %53
 z/ (e/"^flag."!8va(!e''/)!8va)! z/ z/ ^d'/ | e'/^d'/e'/d'/e'/d'/ | %55
 e'/^d'/e'/b/!-(!!4!=d'/!-)!!4!c'/ |"^V" a z/ c/e/a/ | !4!b z/ !0!e/!1!^g/!-(!!4!b/ | %58
"^V" !-)!c' z/ !1!e/!4!e'/!3!^d'/ | e'/^d'/e'/b/!-(!!4!=d'/!-)!!4!c'/ |"^V" a z/ c/e/a/ | %61
 !4!b z/ !1!e/!-(!!4!c'/!-)!!4!b/ | !1!a z z | !4!!3!!1![g_b^c']3 | %64
"^3X" [fad']2 !3!!1![^c'e']/!4!!2![d'f']/ | !1!!4!!2![^gd'f']2 [gd'f'] | !3!!2!!1![a=c'e']3 | %67
"^3X" [fd']2 !3!!2![ec']/"^VII"[db]/ |"^3V" !3![c^fa]2 [ca] | [ca]!1!!-(!!4![ec']!3!!-)!!4![db] | %70
"^V" [ca]3 | !4!!3!!1![g_b^c']3 |"^3X" [fad']2 !3!!1![^c'e']/!4!!2![d'f']/ | [d'f']2 !4!f' | %74
"_thumb of left hand on VI" f'3 | %75
"_thumb of left hand on VI" !0![G_e']2 !-(!!3!!4![fd']/!-(!!3!!-)!!4![_ec']/ | %76
"^VI" !-)!!3!!!-(![df_b]2 !2!!-)!!1![fa] | !4!!2!!1![df^g]2 [dfg] |"^V" [c=ea]2 z | %79
 !2!!1!!4![^Geb] z z |"^II" (3!4!A,/!2!C/!1!E/ (3C/E/!1!A/ (3!0!A,/!4!c/!0!B/ | %81
 (3A,/"^3V"c/e/ (3c/e/a/ (3A,/!2!c'/!1!b/ | %82
 (3A,/!2!c'/!1!e'/ (3!2!c'/!1!e'/!4!a'/ (3A,/!4!c''/!3!b'/ | %83
 (3!2!^a'/!-(!!1!=a'/!-)!!4!^g'/ (3!3!=g'/!2!^f'/!-(!!1!=f'/ (3!-)!!4!e'/!3!^d'/!2!=d'/ | %84
 (3!1!^c'/!4!=c'/!3!b/ (3!2!^a/!-(!!1!=a/!-)!!1!^g/ (3!4!=g/!3!^f/!2!=f/ | %85
 !4!e'/!3!^d'/e'/b/!-(!!4!=d'/!-)!!4!c'/ |"^V" a z/ c/e/a/ | !4!b z/ !0!e/!1!^g/!4!b/ | %88
"^V" c' z/ !1!e/!4!e'/!3!^d'/ | e'/^d'/e'/b/=d'/c'/ |"^V" a z/ c/e/a/ | %91
 !4!b z/ !1!e/!-(!!4!c'/!-)!!4!b/ |"^V" a z/ b/c'/d'/ | e'3/2 g/f'/e'/ | d'3/2 f/e'/d'/ | %95
 c'3/2 e/!4!d'/!-(!!2!c'/ | !-)!!2!b z/ (!1!e/!4!e'/) z/ | %97
 z/ (e/"^flag."!8va(!e''/)!8va)! z/ z/ (^d'/ | e'/)^d'/e'/d'/e'/d'/ | %99
 e'/^d'/e'/b/!-(!!4!=d'/!-)!!4!c'/ |"^V" a z/ c/e/a/ | !4!b z/ !0!e/!1!^g/!-(!!4!b/ | %102
 !-)!!4!c' z/ !1!e/!4!e'/!3!^d'/ | e'/^d'/e'/b/!-(!!4!=d'/!-)!!4!c'/ | %104
"^rit. - - - - - - - - - - - - - - - - - - - - - - - - - - - - - - - - - - - - - - - - - - - - - - - - - -""^V" a z/ c/e/a/ | %105
 !4!b z/ !3!d/!-(!!4!c'/!-)!!4!b/ |"^3V" !fermata![ca] z |] %107
V:2
 x | x3 | A,/!2!E/!3!A/ z/ z | E,/!3!E/!2!^G/ z/ z | A,/E/A/ z/ z | x3 | A,/E/A/ z/ z | %7
 E,/!3!E/!2!^G/ z/ z |1 A,/E/A/ z/ :|2 A,/E/A/ z/ z |: !1!c/!2!g/!4!c'/ z/ z | %11
 !1!G/!0!G/!0!B/ z/ z | !1!A/!3!e/!4!a/ z/ z | E,/!1!E/!0!e/ z/ z/ (e/ | %14
e'/) z/!8va(! z/!8va)! (!3!^d'/!4!e'/) z/ | x3 | x3 | A,/E/A/ z/ z | E,/!3!E/!2!^G/ z/ z | %19
 A,/E/A/ z/ z | x3 | A,/E/A/ z/ z |1 E,/!3!E/!2!^G/ z/ z | A,/E/A/ z/ z :|2 %24
 E,/!3!E/!-(!!2!^G/ z/ z || A, z/ z/ z | !1!F,/F/A/F/!1!F,/!-(!!3!A/ | F,/!-)!!3!_BB/ z/ z/ | %28
 [F_B]BF | !1!F,/!3!F/A/F/ z/ z/ | !1!F,/!3!F/!2!A/F/ z/ z/ | E,/!2!E/!3!A/ z/ z/ !1!F,/ | %32
 !3!G,/!2!E/!0!G/!2!!C/!1!G,/!2!F/ | !3!!2!!0![CEG] z/ z/ z/ z/ | z FG | [CEG] z/ z/ z/ z/ | %36
 z !3!F!1!G | !3!^G z z | x3 | x3 | x3 | x3 | A,/E/A/ z/ z | E,/!3!E/!2!^G/ z/ z | A,/E/A/ z/ z | %45
 x3 | A,/E/A/ z/ z | E,/!3!E/!2!^G/ z/ z | A,/E/A/ z/ z | !1!c/!2!g/!4!c'/ z/ z | %50
 !1!G/!0!G/!0!B/ z/ z | !1!A/!3!e/!4!a/ z/ z | E,/!1!E/!0!e/ z/ z/ (e/ | %53
e'/) z/!8va(! z/!8va)! (!3!^d'/!4!e'/) z/ | x3 | x3 | A,/E/A/ z/ z | E,/!3!E/!2!^G/ z/ z | %58
 A,/E/A/ z/ z | x3 | A,/E/A/ z/ z | E,/!3!E/!2!^G/ z/ z | !0!A,/A,/A,/A,/A,/A,/ | %63
 A,/A,/A,/A,/A,/A,/ | A,/A,/A,/A,/A,/A,/ | A,/A,/A,/A,/A,/A,/ | A,/A,/A,/A,/A,/A,/ | %67
 A,/A,/A,/A,/A,/A,/ | !2!^D/D/D/D/D/D/ | !3!E/E/E/E/!2!^G/E,/ | !1!A,/A,/A,/A,/!0!A,/A,/ | %71
 A,/A,/A,/A,/A,/A,/ | A,/A,/A,/A,/A,/A,/ | A,/A,/A,/A,/A,/A,/ | _B,/B,/B,/B,/B,/B,/ | %75
 _B,/B,/B,/B,/B,/B,/ | !1!_B,/B,/B,/B,/!4!_B/B/ | !3!=B,/B,/B,/B,/B,/B,/ | !4!C2 z | !3!E z z | %80
 A, z A, | A, z A, | A, z A, | A, z z | x3 | x3 | A,/E/A/ z/ z | E,/!3!E/!2!^G/ z/ z | %88
 A,/E/A/ z/ z | x3 | A,/E/A/ z/ z | E,/!3!E/!2!^G/ z/ z | A,/E/A/ z/ z | c/g/c'/ z/ z | %94
 G/G/B/ z/ z | A,/E/A/ z/ z | E,/!1!E/!0!e/ z/ z/ (e/ | e'/) z/!8va(! z/!8va)! (!3!^d'/!4!e'/) z/ | %98
 x3 | x3 | A,/E/A/ z/ z | E,/E/^G/ z/ z | A,/E/A/ z/ z | x3 | A,/E/A/ z/ z | E,/!3!E/!2!^G/ z/ z | %106
 !fermata!A, z |] %107

